release/img/basket_place.svg

<svg xmlns="http://www.w3.org/2000/svg" xmlns:xlink="http://www.w3.org/1999/xlink" width="620" height="246" fill="none" viewBox="0 0 620 246">
  <defs>
    <path id="c" fill="#fff" d="M0 0h620v246H0z"/>
  </defs>
  <g clip-path="url(#a)">
    <g clip-path="url(#b)">
      <path stroke="#fff" stroke-miterlimit="10" stroke-width="1.81" d="M682.98 173.92 139.3 486.94l-297.06-164.9L385.92 9.02l297.06 164.9Zm-568.9-8.39 297.06 164.9"/>
      <path stroke="#fff" stroke-miterlimit="10" stroke-width="1.81" d="M265.566 275.266c27.058-2.882 47.69-17.448 46.083-32.534-1.607-15.086-24.844-24.979-51.902-22.097-27.058 2.882-47.69 17.448-46.084 32.534 1.607 15.086 24.845 24.979 51.903 22.097ZM653.78 157.72 622.9 175.5c-73.68 42.42-186.84 47.15-252.74 10.56C304.25 149.47 310.55 85.43 384.23 43l30.88-17.78"/>
      <path stroke="#fff" stroke-miterlimit="10" stroke-width="1.81" d="m569.219 110.77-125.42 72.21c-21.47 12.36-54.44 13.74-73.64 3.08-19.2-10.66-17.37-29.32 4.1-41.68l125.42-72.21M374.26 144.38l69.54 38.6"/>
      <path stroke="#000" stroke-miterlimit="10" stroke-width="2.19" d="M526.76 86.93v-64c0-5.23-5.98-8.21-10.16-5.06l-18.77 14.15"/>
      <path fill="#fff" d="m472.51 2.38 46.25 28.6v30.89l-46.25-27.46V2.38Z"/>
      <path stroke="#000" stroke-miterlimit="10" stroke-width="1.1" d="m484.76 28.84 17.82 11.01v11.9l-17.82-10.57V28.84Zm-1.96 26.25c5.689 0 10.3-2.086 10.3-4.66 0-2.574-4.611-4.66-10.3-4.66-5.689 0-10.3 2.086-10.3 4.66 0 2.574 4.611 4.66 10.3 4.66Z"/>
      <path fill="#FF3205" d="m537.671 146.35-9.98-61.4-1.61.96 9.98 61.4c.32 1.95-.21 4.11-1.4 5.77-1.19 1.66-2.74 2.38-4.12 1.92l-4.86-1.63 6-9.69-4.82-29.63-1.95-1.07-10.04 15.74-.02-.12-6 9.4-1.34.24c.61-1.19.89-2.33.73-3.3-.46-2.8-4.31-2.91-8.78-.25s-7.61 6.93-7.16 9.73c.46 2.8 4.31 2.91 8.78.25 1.81-1.08 3.4-2.42 4.62-3.82l1.11.35-4.11 6.43.02.12-7.52 11.79 4.99 30.73 1.95 1.07 22.25-35.91 5.45 1.83c1.93.65 4.17-.39 5.84-2.72s2.43-5.46 1.99-8.19Zm-36.77-2.74c-4.29 2.55-7.5 2.22-7.81.32-.31-1.9 2.24-5.65 6.52-8.2 4.29-2.55 7.5-2.22 7.81-.32.31 1.9-2.24 5.66-6.53 8.2h.01Z"/>
    </g>
  </g>
  <defs>
    <clipPath id="a">
      <use xlink:href="#c"/>
    </clipPath>
    <clipPath id="b">
      <use xlink:href="#c"/>
    </clipPath>
  </defs>
</svg>

<svg width="620" height="246" viewBox="0 0 620 246" fill="none" xmlns="http://www.w3.org/2000/svg">
<g clip-path="url(#clip0_371_490)">
<g clip-path="url(#clip1_371_490)">
<path d="M682.98 173.92L139.3 486.94L-157.76 322.04L385.92 9.02002L682.98 173.92Z" stroke="white" stroke-width="1.81" stroke-miterlimit="10"/>
<path d="M114.08 165.53L411.14 330.43" stroke="white" stroke-width="1.81" stroke-miterlimit="10"/>
<path d="M265.566 275.266C292.624 272.384 313.256 257.818 311.649 242.732C310.042 227.646 286.805 217.753 259.747 220.635C232.689 223.517 212.057 238.083 213.663 253.169C215.27 268.255 238.508 278.148 265.566 275.266Z" stroke="white" stroke-width="1.81" stroke-miterlimit="10"/>
<path d="M653.78 157.72L622.9 175.5C549.22 217.92 436.06 222.65 370.16 186.06C304.25 149.47 310.55 85.43 384.23 43L415.11 25.22" stroke="white" stroke-width="1.81" stroke-miterlimit="10"/>
<path d="M569.219 110.77L443.799 182.98C422.329 195.34 389.359 196.72 370.159 186.06C350.959 175.4 352.789 156.74 374.259 144.38L499.679 72.1699" stroke="white" stroke-width="1.81" stroke-miterlimit="10"/>
<path d="M374.26 144.38L443.8 182.98" stroke="white" stroke-width="1.81" stroke-miterlimit="10"/>
<path d="M526.76 86.93V22.93C526.76 17.7 520.78 14.72 516.6 17.87L497.83 32.02" stroke="black" stroke-width="2.19" stroke-miterlimit="10"/>
<path d="M472.51 2.37988L518.76 30.9799V61.8699L472.51 34.4099V2.37988Z" fill="white"/>
<path d="M484.76 28.8401L502.58 39.8501V51.7501L484.76 41.1801V28.8401Z" stroke="black" stroke-width="1.1" stroke-miterlimit="10"/>
<path d="M482.8 55.09C488.489 55.09 493.1 53.0037 493.1 50.43C493.1 47.8564 488.489 45.77 482.8 45.77C477.111 45.77 472.5 47.8564 472.5 50.43C472.5 53.0037 477.111 55.09 482.8 55.09Z" stroke="black" stroke-width="1.1" stroke-miterlimit="10"/>
<path d="M537.671 146.35L527.691 84.95L526.081 85.9099L536.061 147.31C536.381 149.26 535.851 151.42 534.661 153.08C533.471 154.74 531.921 155.46 530.541 155L525.681 153.37L531.681 143.68L526.861 114.05L524.911 112.98L514.871 128.72L514.851 128.6L508.851 138L507.511 138.24C508.121 137.05 508.401 135.91 508.241 134.94C507.781 132.14 503.931 132.03 499.461 134.69C494.991 137.35 491.851 141.62 492.301 144.42C492.761 147.22 496.611 147.33 501.081 144.67C502.891 143.59 504.481 142.25 505.701 140.85L506.811 141.2L502.701 147.63L502.721 147.75L495.201 159.54L500.191 190.27L502.141 191.34L524.391 155.43L529.841 157.26C531.771 157.91 534.011 156.87 535.681 154.54C537.351 152.21 538.111 149.08 537.671 146.35ZM500.901 143.61C496.611 146.16 493.401 145.83 493.091 143.93C492.781 142.03 495.331 138.28 499.611 135.73C503.901 133.18 507.111 133.51 507.421 135.41C507.731 137.31 505.181 141.07 500.891 143.61H500.901Z" fill="#FF3205"/>
</g>
</g>
<defs>
<clipPath id="clip0_371_490">
<rect width="620" height="246" fill="white"/>
</clipPath>
<clipPath id="clip1_371_490">
<rect width="620" height="246" fill="white"/>
</clipPath>
</defs>
</svg>
